src/assets/instagram.svg

<svg xmlns="http://www.w3.org/2000/svg" style="isolation:isolate" viewBox="0 0 100 100" width="100pt" height="100pt"><defs><clipPath id="a"><path d="M0 0h100v100H0z"/></clipPath></defs><g clip-path="url(#a)"><path d="M6 50.043V24.897c.014-11.013 8.001-19.139 19.055-19.181a6011.65 6011.65 0 0149.888 0c11.026.042 19.027 8.155 19.041 19.194a19908 19908 0 010 50.084C93.97 86.117 85.927 94.272 74.818 94.3c-16.56.041-33.12.055-49.68 0C14.043 94.272 6.014 86.103 6 74.98V50.043zm80.415.027c0-8.446.014-16.894 0-25.341-.014-6.607-4.656-11.388-11.277-11.416-16.755-.056-33.51-.056-50.264 0-6.649.028-11.277 4.781-11.277 11.388-.014 16.825-.014 33.65 0 50.474 0 6.733 4.669 11.513 11.36 11.528 16.685.041 33.371.041 50.056 0 6.704-.015 11.388-4.81 11.388-11.515.014-8.363.014-16.74.014-25.118z" fill="#FFF" opacity=".41"/><path d="M72.936 49.945c.014 12.754-10.218 23.042-22.93 23.07-12.671.027-22.986-10.316-22.958-23.042.014-12.657 10.217-22.902 22.832-22.944 12.741-.042 23.042 10.19 23.056 22.916zm-23.07 15.486c8.503.056 15.515-6.871 15.557-15.361.055-8.405-6.803-15.36-15.222-15.458-8.628-.098-15.709 6.872-15.682 15.417.042 8.405 6.97 15.347 15.347 15.402zM80.003 25.803c.028 2.983-2.258 5.338-5.227 5.38-2.955.042-5.381-2.258-5.464-5.185-.084-2.97 2.397-5.521 5.38-5.521 2.913 0 5.283 2.37 5.311 5.326z" fill="#FFF" opacity=".41"/></g></svg>

<?xml version="1.0" encoding="UTF-8" standalone="no"?><!-- Generator: Gravit.io --><svg xmlns="http://www.w3.org/2000/svg" xmlns:xlink="http://www.w3.org/1999/xlink" style="isolation:isolate" viewBox="0 0 100 100" width="100pt" height="100pt"><defs><clipPath id="_clipPath_wW5c4JflZ3LNKBJ64ZLJobI2Juxf9Iv9"><rect width="100" height="100"/></clipPath></defs><g clip-path="url(#_clipPath_wW5c4JflZ3LNKBJ64ZLJobI2Juxf9Iv9)"><g opacity="0.41"><path d=" M 6 50.043 C 6 41.665 6 33.274 6 24.897 C 6.014 13.884 14.001 5.758 25.055 5.716 C 41.684 5.647 58.314 5.647 74.943 5.716 C 85.969 5.758 93.97 13.871 93.984 24.91 C 94.012 41.609 93.998 58.308 93.984 74.994 C 93.97 86.117 85.927 94.272 74.818 94.3 C 58.258 94.341 41.698 94.355 25.138 94.3 C 14.043 94.272 6.014 86.103 6 74.98 C 6 66.672 6 58.364 6 50.043 Z  M 86.415 50.07 C 86.415 41.624 86.429 33.176 86.415 24.729 C 86.401 18.122 81.759 13.341 75.138 13.313 C 58.383 13.257 41.628 13.257 24.874 13.313 C 18.225 13.341 13.597 18.094 13.597 24.701 C 13.583 41.526 13.583 58.351 13.597 75.175 C 13.597 81.908 18.266 86.688 24.957 86.703 C 41.642 86.744 58.328 86.744 75.013 86.703 C 81.717 86.688 86.401 81.893 86.401 75.188 C 86.415 66.825 86.415 58.448 86.415 50.07 Z " fill="rgb(255,255,255)"/></g><g opacity="0.41"><path d=" M 72.936 49.945 C 72.95 62.699 62.718 72.987 50.006 73.015 C 37.335 73.042 27.02 62.699 27.048 49.973 C 27.062 37.316 37.265 27.071 49.88 27.029 C 62.621 26.987 72.922 37.219 72.936 49.945 Z  M 49.866 65.431 C 58.369 65.487 65.381 58.56 65.423 50.07 C 65.478 41.665 58.62 34.71 50.201 34.612 C 41.573 34.514 34.492 41.484 34.519 50.029 C 34.561 58.434 41.489 65.376 49.866 65.431 Z " fill="rgb(255,255,255)"/></g><g opacity="0.41"><path d=" M 80.003 25.803 C 80.031 28.786 77.745 31.141 74.776 31.183 C 71.821 31.225 69.395 28.925 69.312 25.998 C 69.228 23.028 71.709 20.477 74.692 20.477 C 77.605 20.477 79.975 22.847 80.003 25.803 Z " fill="rgb(255,255,255)"/></g></g></svg>
